X:319
T:Seyh Samil
T:Sheikh Shamil
Z:Jack Campin, http://www.campin.me.uk/
F:Jack Campin's Nine-Note Tunebook
% last edit 15-03-2013
M:12/8
L:1/8
Q:3/8=140
P:ABA
K:AMin
P:A
e2e fed e3 A3|d2d edc B3  A3|d2d edc d3  A3 |c2d c2B A3  A3:|
P:B
A3  A3 e2e f3|e3  c3  A2A A3|e3  d3  c3  B2c|d2d B2B G3  G3 |
G3  G3 d2d e3|d3  B3  G2G G3|e3  d3  c2c B3 |c3  B3  A2A A3|]

